X: 1467
T: Anderson's
R: jig
M: 6/8
K: Dmajor
"D" d2 f "A7" edc|"D" dAF "D7" DFA|"G" BAG "D" AGF|"Em" EFG "A7" ABc|
"D" def "A7" edc|"D" dAF DFA|"G" B<gf "A7" e<ac|"D" d3- d:|
"D" afd "G" bgd|"D" afd def|"Em" gfe "E7" fed|"A" ecA "A7" ABc|
"D" def "A7" edc|"D" dAF DFA|"G" B<gf "A7" e<ac|"D" d3- d:|

